X: 66
T: Rabbit in the Garden
C: Anon.
%%abc-version 2.0
%%abcx-abcm2ps-target-version 5.9.1 (29 Sep 2008)
%%abc-creator hum2abc beta
%%abcx-conversion-date 2020/08/10 20:56:09
%%abc-copyright Electronic Copyright 2000 David Huron
%%abc-edited-by David Huron
%%abcx-initial-encoding-date August 30, 2000
%%humdrum-veritas 4222098287
%%humdrum-veritas-data 3799690637
%%linebreak <none>
%%barnumbers 0
L: 1/8
M: 2/4
Q: 1/4=88
K: E clef=bass
G, B, B, G, | 
B,2C B, | 
G,/ G,/ G,/ G,/ G, E, | 
F, E, E, z[M:3/4] | 
G, B, F, G, E, z[M:2/4] | 
G,2F,2 | 
E,2z2 | 
G, B, B, G, | 
B,2C B, | 
G,/ G,/ G,/ G,/ G, E, | 
F, E, E, z[M:3/4] | 
G, B, F, G, E, z | 
G,2F,2E, E,/ z/ | 
G,2F,2E, z[M:2/4] | 
G, B, B, G, | 
B, z C B, | 
G,/ G,/ G,/ G,/ G, E, | 
F, E, E, z[M:3/4] | 
G, B, F, F, E, z[M:2/4] | 
G, B, B, G, | 
B,2C B, | 
G,/ G,/ G,/ G,/ G, E, | 
F, E, E, z[M:3/4] | 
(3G, B, G, F, F, E, z | 
G,2F,2E, z[M:2/4] | 
G, B, B, G, | 
B,2C B, | 
G, E, G, E,[M:5/8] | 
F, E,E,2z G,[M:3/4] | 
G, G,G,2G, E, | 
F, E, E, zz2 |]  



